kora-light/actions/scalable/image-denoise.svg

<svg xmlns="http://www.w3.org/2000/svg" style="fill-rule:evenodd;clip-rule:evenodd;stroke-linejoin:round;stroke-miterlimit:2" width="100%" height="100%" version="1.1" viewBox="0 0 16 16" xml:space="preserve">
 <defs>
  <style id="current-color-scheme" type="text/css">
   .ColorScheme-Text { color:#444444; } .ColorScheme-Highlight { color:#4285f4; } .ColorScheme-NeutralText { color:#ff9800; } .ColorScheme-PositiveText { color:#4caf50; } .ColorScheme-NegativeText { color:#f44336; }
  </style>
 </defs>
 <path style="fill:currentColor;" class="ColorScheme-Text" d="M11,13l-2,0l0,2l2,0l0,-2Zm-6,-4l-2,0l0,2l2,0l0,-2Zm8,0l-2,0l0,2l2,0l0,-2Zm-10,-2l-2,0l0,2l2,0l0,-2Zm4,0l0,-2l4,0l0,2l-4,0Zm-6,-4l0,-2l6,0l0,4l-2,0l0,-2l-4,0Z"/>
 <path style="fill:currentColor;fill-opacity:0.5" class="ColorScheme-Text" d="M5,13l-2,0l0,2l2,0l0,-2Zm8,-2l2,0l0,4l-2,0l0,-4Zm-4,0l-2,0l0,2l2,0l0,-2Zm-2,-4l-2,0l0,2l2,0l0,-2Zm-2,-2l-2,0l0,2l2,0l0,-2Zm8,-2l-2,0l0,2l2,0l0,-2Zm-2,-2l-2,0l0,2l2,0l0,-2Z"/>
</svg>

<svg xmlns="http://www.w3.org/2000/svg" width="16" height="16" version="1.1">
 <defs>
  <style id="current-color-scheme" type="text/css">
   .ColorScheme-Text { color:#444444; } .ColorScheme-Highlight { color:#4285f4; }
  </style>
 </defs>
 <path style="fill:currentColor" class="ColorScheme-Text" d="M 1,1 V 3 H 5 V 5 H 7 V 1 Z M 7,5 V 7 H 11 V 5 Z M 11,5 H 13 V 3 H 11 Z M 11,3 V 1 H 9 V 3 Z M 7,7 H 5 V 9 H 7 Z M 5,9 H 3 V 11 H 5 Z M 3,9 V 7 H 1 V 9 Z M 3,7 H 5 V 5 H 3 Z M 11,9 V 11 H 13 V 9 Z M 13,11 V 15 H 15 V 11 Z M 7,11 V 13 H 9 V 11 Z M 9,13 V 15 H 11 V 13 Z M 3,13 V 15 H 5 V 13 Z"/>
</svg>
